X:1
T:Title
%%score ( 1 2 ) { 3 | 4 }
L:1/8
Q:1/4=85
M:6/8
K:G
V:1 treble nm="Grand Piano, Soprano"
V:2 treble 
V:3 bass nm="Choir Pad, Freedom in Jesus"
V:4 bass 
V:1
 D[DG][DG] [DG][GB]>[DA] | [DG][EG][CE] [CG] [B,D]2 | D[DG][DG] [DG][GB]>[DA] | %3
w: By~William~James~Kirkpatrick * * * * *|||
 [DG][GB][GA] [GA] [FA]2 | [GB][Gd]>[Gd] [Gd][GB][DA] | [DG][EA][EG] [CE] [EG]2 | %6
w: |||
 [Gc][GB][GB]- [GB]/G/[GB][GB]- | [GB]/[FA]/ [DG]2- [DG]2- [DG]/ z/ | [GB] [Gd]2- [Gd]/ z/ [Gd]2- | %9
w: |||
 [Gd][Ge][Gd] [GB] [Gd]2 | [Gc][GB][DA] [DG][GB][DA] | z A2- A z z | [CD][B,G][B,G] [B,G][DB][DA] | %13
w: ||||
 [DG][EG][CE] [CG] [B,D]2 | [Gd][Gd]<[GB] G[GB][GB] | [FA] [DG]2- [DG]3- | [DG]3 z3 |] %17
w: ||||
V:2
 x6 | x6 | x6 | x6 | x6 | x6 | x6 | x6 | x6 | x6 | x6 | [EG] F2- F-[Fd-]>d | x6 | x6 | x6 | x6 | %16
 x6 |] %17
V:3
 B,B,B, B,D>C | B,CG, G, G,2 | B,B,B, B,[K:treble]D>C | B,^CC C D2 | D[K:bass]B,>B, B,DC | %5
 B,[K:treble]CC G, C2 | EDD- D/B,/DD- | D/C/[K:bass] B,2- B,2- B,/ z/ | D B,2 B, B,2 | %9
 B,[K:treble]CB, D B,2 | EDC B,DD | ^C D2- D[K:bass] A,2 | F,G,D, D,G,F, | G,G,G, G, G,2 | %14
 B,B,<[K:treble]D B,DD | C[K:bass] B,2- B,3- | B,3 z3 |] %17
V:4
 G,G,G, G,G,>G, | G,C,C, .E,3 | G,G,G, G,G,>G, | G,E,E, E, D,2 | G,G,>G, G,G,G, | G,C,C, C, C,2 | %6
 C,D,D,- D,/D,/D,D,- | D,/D,/ G,2- G,2- G,/ z/ | G, G,2 G, G,2 | G,G,G, G, G,2 | G,G,G, G,G,F, | %11
 E, D,2- D,2- D,/ z/ | D,G,,G,, G,,G,,A,, | B,,C,C, .E,3 | G,G,<G, G,D,D, | %15
 D, [G,,G,]2- [G,,G,]3- | [G,,G,]3 z3 |] %17

